img/2tag.svg

<svg width="34" height="33" viewBox="0 0 34 33" fill="none" xmlns="http://www.w3.org/2000/svg">
<path d="M24.5967 3.07125C24.334 1.81854 23.1934 0.872559 21.829 0.872559C21.5172 0.872559 21.2641 1.11826 21.2641 1.42223C21.2641 1.7262 21.5172 1.9719 21.829 1.9719C22.7635 1.9719 23.5239 2.71176 23.5239 3.62092C23.5239 4.53008 22.7635 5.26993 21.829 5.26993C21.5172 5.26993 21.2641 5.51564 21.2641 5.81961C21.2641 6.12357 21.5172 6.36928 21.829 6.36928C23.1928 6.36928 24.334 5.42329 24.5967 4.17059H31.998V9.11764H1.49118V4.17059H9.40035H11.0952C11.407 4.17059 11.6601 3.92489 11.6601 3.62092C11.6601 3.31695 11.407 3.07125 11.0952 3.07125H10.0692C10.3031 2.43253 10.9246 1.9719 11.6601 1.9719C12.5945 1.9719 13.3549 2.71176 13.3549 3.62092C13.3549 4.53008 12.5945 5.26993 11.6601 5.26993C11.3483 5.26993 11.0952 5.51564 11.0952 5.81961C11.0952 6.12357 11.3483 6.36928 11.6601 6.36928C13.2177 6.36928 14.4848 5.13636 14.4848 3.62092C14.4848 2.10547 13.2177 0.872559 11.6601 0.872559C10.2963 0.872559 9.15516 1.81854 8.89247 3.07125H0.361298V10.217V32.2039H33.1279V10.217V3.07125H24.5967ZM31.998 31.1045H1.49118V10.217H31.998V31.1045Z" fill="white"/>
<path d="M15.0497 1.9719C15.9842 1.9719 16.7446 2.71176 16.7446 3.62092C16.7446 4.53008 15.9842 5.26993 15.0497 5.26993C14.7379 5.26993 14.4848 5.51564 14.4848 5.81961C14.4848 6.12357 14.7379 6.36928 15.0497 6.36928C16.6073 6.36928 17.8744 5.13636 17.8744 3.62092C17.8744 2.10547 16.6073 0.872559 15.0497 0.872559C14.7379 0.872559 14.4848 1.11826 14.4848 1.42223C14.4848 1.7262 14.7379 1.9719 15.0497 1.9719Z" fill="white"/>
<path d="M18.4394 1.9719C19.3738 1.9719 20.1342 2.71176 20.1342 3.62092C20.1342 4.53008 19.3738 5.26993 18.4394 5.26993C18.1275 5.26993 17.8745 5.51564 17.8745 5.81961C17.8745 6.12357 18.1275 6.36928 18.4394 6.36928C19.9969 6.36928 21.2641 5.13636 21.2641 3.62092C21.2641 2.10547 19.9969 0.872559 18.4394 0.872559C18.1275 0.872559 17.8745 1.11826 17.8745 1.42223C17.8745 1.7262 18.1275 1.9719 18.4394 1.9719Z" fill="white"/>
<path d="M5.44576 14.6142H17.8745C18.1863 14.6142 18.4394 14.3685 18.4394 14.0646C18.4394 13.7606 18.1863 13.5149 17.8745 13.5149H5.44576C5.13391 13.5149 4.88082 13.7606 4.88082 14.0646C4.88082 14.3685 5.13391 14.6142 5.44576 14.6142Z" fill="white"/>
<path d="M28.0434 22.3098H19.5693C19.2574 22.3098 19.0043 22.5555 19.0043 22.8595C19.0043 23.1635 19.2574 23.4092 19.5693 23.4092H28.0434C28.3552 23.4092 28.6083 23.1635 28.6083 22.8595C28.6083 22.5555 28.3552 22.3098 28.0434 22.3098Z" fill="white"/>
<path d="M5.44576 19.0119H11.0952C11.407 19.0119 11.6601 18.7662 11.6601 18.4623C11.6601 18.1583 11.407 17.9126 11.0952 17.9126H5.44576C5.13391 17.9126 4.88082 18.1583 4.88082 18.4623C4.88082 18.7662 5.13391 19.0119 5.44576 19.0119Z" fill="white"/>
<path d="M28.0434 26.7073H22.394C22.0821 26.7073 21.829 26.953 21.829 27.2569C21.829 27.5609 22.0821 27.8066 22.394 27.8066H28.0434C28.3552 27.8066 28.6083 27.5609 28.6083 27.2569C28.6083 26.953 28.3552 26.7073 28.0434 26.7073Z" fill="white"/>
<path d="M16.1796 18.4623C16.1796 18.7662 16.4327 19.0119 16.7446 19.0119H25.2187C25.5305 19.0119 25.7836 18.7662 25.7836 18.4623C25.7836 18.1583 25.5305 17.9126 25.2187 17.9126H16.7446C16.4327 17.9126 16.1796 18.1583 16.1796 18.4623Z" fill="white"/>
<path d="M14.321 18.8525C14.4227 18.7481 14.4848 18.6051 14.4848 18.4622C14.4848 18.3188 14.4227 18.1759 14.321 18.072C14.1119 17.8686 13.7278 17.8686 13.5188 18.072C13.4171 18.1759 13.3549 18.3188 13.3549 18.4622C13.3549 18.6051 13.4171 18.7481 13.5188 18.8525C13.6261 18.9564 13.773 19.0119 13.9199 19.0119C14.0668 19.0119 14.2136 18.9564 14.321 18.8525Z" fill="white"/>
<path d="M7.70552 22.8595C7.70552 23.1635 7.95861 23.4092 8.27046 23.4092H16.7446C17.0564 23.4092 17.3095 23.1635 17.3095 22.8595C17.3095 22.5555 17.0564 22.3098 16.7446 22.3098H8.27046C7.95861 22.3098 7.70552 22.5555 7.70552 22.8595Z" fill="white"/>
<path d="M5.44576 23.4092C5.59264 23.4092 5.73953 23.3487 5.84687 23.2498C5.94856 23.1453 6.0107 23.0024 6.0107 22.8595C6.0107 22.716 5.94856 22.5731 5.84687 22.4747C5.63784 22.2659 5.25368 22.2659 5.04465 22.4692C4.94296 22.5731 4.88082 22.716 4.88082 22.8595C4.88082 23.0024 4.94296 23.1453 5.04465 23.2498C5.15199 23.3487 5.29323 23.4092 5.44576 23.4092Z" fill="white"/>
<path d="M28.0434 19.0119C28.1903 19.0119 28.3371 18.9564 28.4445 18.8525C28.5518 18.7481 28.6083 18.6051 28.6083 18.4622C28.6083 18.3188 28.5518 18.1759 28.4445 18.072C28.2298 17.8686 27.8513 17.8686 27.6423 18.072C27.5406 18.1759 27.4784 18.3188 27.4784 18.4622C27.4784 18.6051 27.5406 18.7481 27.6423 18.8525C27.7496 18.9564 27.8965 19.0119 28.0434 19.0119Z" fill="white"/>
<path d="M19.5693 26.7073H5.44576C5.13391 26.7073 4.88082 26.953 4.88082 27.2569C4.88082 27.5609 5.13391 27.8066 5.44576 27.8066H19.5693C19.8811 27.8066 20.1342 27.5609 20.1342 27.2569C20.1342 26.953 19.8811 26.7073 19.5693 26.7073Z" fill="white"/>
</svg>

<svg width="34" height="33" fill="none" xmlns="http://www.w3.org/2000/svg"><path d="M24.6 3.072c-.263-1.253-1.404-2.2-2.769-2.2a.558.558 0 0 0-.565.55c0 .305.253.55.565.55.935 0 1.696.74 1.696 1.65 0 .91-.76 1.65-1.696 1.65a.558.558 0 0 0-.565.55c0 .304.253.55.565.55 1.365 0 2.506-.947 2.77-2.2h7.404v4.95H1.485v-4.95h9.608a.558.558 0 0 0 .565-.55.558.558 0 0 0-.565-.55h-1.027a1.69 1.69 0 0 1 1.592-1.1c.935 0 1.695.74 1.695 1.65 0 .91-.76 1.65-1.695 1.65a.558.558 0 0 0-.565.55c0 .304.253.55.565.55 1.558 0 2.826-1.234 2.826-2.75S13.216.872 11.658.872c-1.364 0-2.506.947-2.769 2.2H.354v29.146h32.781V3.072H24.6Zm7.405 28.046H1.485V10.22h30.52v20.897Z" fill="#fff"/><path d="M15.049 1.972c.935 0 1.696.74 1.696 1.65 0 .91-.761 1.65-1.696 1.65a.558.558 0 0 0-.565.55c0 .304.253.55.565.55 1.558 0 2.826-1.234 2.826-2.75S16.607.872 15.049.872a.558.558 0 0 0-.565.55c0 .305.253.55.565.55ZM18.44 1.972c.935 0 1.696.74 1.696 1.65 0 .91-.761 1.65-1.696 1.65a.558.558 0 0 0-.565.55c0 .304.253.55.565.55 1.558 0 2.826-1.234 2.826-2.75S19.998.872 18.44.872a.558.558 0 0 0-.565.55c0 .305.253.55.565.55ZM5.44 14.62h12.435a.558.558 0 0 0 .565-.55.558.558 0 0 0-.565-.55H5.441a.558.558 0 0 0-.565.55c0 .304.253.55.565.55ZM28.049 22.32H19.57a.558.558 0 0 0-.566.549c0 .304.254.55.566.55h8.477a.558.558 0 0 0 .566-.55.558.558 0 0 0-.566-.55ZM5.44 19.02h5.653a.558.558 0 0 0 .565-.55.558.558 0 0 0-.565-.55H5.44a.558.558 0 0 0-.565.55c0 .304.253.55.565.55ZM28.049 26.718h-5.652a.558.558 0 0 0-.566.55c0 .305.254.55.566.55h5.652a.558.558 0 0 0 .565-.55.558.558 0 0 0-.566-.55ZM16.18 18.47c0 .304.253.55.565.55h8.477a.558.558 0 0 0 .566-.55.558.558 0 0 0-.566-.55h-8.477a.558.558 0 0 0-.566.55ZM14.32 18.86a.57.57 0 0 0 .164-.39.568.568 0 0 0-.164-.39.604.604 0 0 0-.803 0 .568.568 0 0 0-.163.39.57.57 0 0 0 .163.39.58.58 0 0 0 .803 0ZM7.702 22.869c0 .304.253.55.565.55h8.478a.558.558 0 0 0 .565-.55.558.558 0 0 0-.565-.55H8.267a.558.558 0 0 0-.565.55ZM5.44 23.42c.148 0 .295-.061.402-.16a.57.57 0 0 0 .164-.39.545.545 0 0 0-.164-.385.598.598 0 0 0-.802-.006.568.568 0 0 0-.164.39.57.57 0 0 0 .164.391c.107.099.248.16.4.16ZM28.049 19.02a.58.58 0 0 0 .4-.16.546.546 0 0 0 0-.78.604.604 0 0 0-.802 0 .568.568 0 0 0-.164.39.57.57 0 0 0 .164.39.58.58 0 0 0 .402.16ZM19.57 26.718H5.44a.558.558 0 0 0-.564.55c0 .305.253.55.565.55h14.13a.558.558 0 0 0 .565-.55.558.558 0 0 0-.565-.55Z" fill="#fff"/></svg>
